X:1
T:Impossible Dream
C:Mitch Leigh
L:1/8
M:C
I:linebreak $
K:Ab
C2 S|:"Ab" E4 (3z CD (3EDC | E4 z2 E2 |"Db" F4 (3z DE (3FED | F4 z2 F2 Ox/||$
"Cm" G4 (3z CD (3EFG |"Db" A2 D2 z2 E2 |"Bbm" F4 (3z B,C (3DEF ||1"Eb7" G4 z2 C2 :|2
"Eb7" G4 z A (3A B A ||$"Ab" c4 z A (3ABA |"Fm" c4 z A (3ABA |"Cm" c2 G2 z A (3BAG |
"Db" B4 z A (3AGF |$"Fm" A4 (3z FG (3AGF |"E7" A4 (3z AB (3cBA |"Ab" c2 c2"Fm" c2 c2 ||
[K:Gb]"Gb" B6 (3z B =c |"Bbm" d4 (3z =cB (3d=cB |$"Gb" d4 (3z =cd (3=cBA ||[K:Ab]"C7" G6 GA |
"Db" B4 (3z AG (3BAG |"Bb7" B4 (3z AB (3AGF |"C7" =E4 "_D.S. al Coda" C2 ||$Ox/"Cm" G4 (3z CD (3EFG |
"Db" A2 D4 A2 |"Ab" c4 A2 B2 |"Bbm" c4"Eb7" B2 A2 |"Ab" A8 |]

